;FLAVOR:Marlin
;TIME:5442
;Filament used: 2.42562m
;Layer height: 0.2
;MINX:84.549
;MINY:101.57
;MINZ:0.2
;MAXX:151.278
;MAXY:133.43
;MAXZ:75.6
;POSTPROCESSED
;Generated with Cura_SteamEngine 4.12.1
M82 ;absolute extrusion mode
;**** CULTURA MAKER - JASMINE MOREIRA ****
;**** SETUP INICIAL ****
M201 X500.00 Y500.00 Z100.00 E5000.00 	;ajuste de aceleração máxima
M203 X500.00 Y500.00 Z10.00 E50.00 		;ajuste de feedrate máximo
M204 P500.00 R1000.00 T500.00 			;ajuste de aceleração de Impressão/Retração/Percurso
M205 X8.00 Y8.00 Z0.40 E5.00 			;ajuste do jerk
M220 S100 								;reinicia Feedrate
M221 S100 								;reinicia Flowrate
;**** FIM ****
;**** AQUECIMENTO ****
M140 S50 		;inicia o aquecimento da mesa com o valor do ajustado no Cura
M104 S220 ?T0 	;inicia o aquecimento do hotend com o valor do ajustado no Cura
G28 									;executa o auto-home durante o aquecimento para ganhar tempo
M190 S50 		;aguarda a mesa atingir a temperatura ajustada
M109 S220 ?T0 	;aguarda o hotend atingir a temperatura ajustada
;**** FIM ****
;**** ALARME SONORO ****
M300 S262 P300 							;emite um Dó,Ré,Mi de um segundo para indicar o início
M300 S294 P300							;* não funciona em placas com buzzer de tom fixo
M300 S330 P400
;**** FIM ****
;**** LINHAS DE PURGA ****
G92 E0 									;reinicia o marcador de posição da extrusora
G1 Z2.0 F3000 							;sobe 2mm no eixo Z, com velocidade de 3000mm/min ou 50mm/s
G1 X10.1 Y20 Z0.20 F5000.0 				;move o hotend para a posição de início de impressão das linhas de purga
G1 X10.1 Y200.0 Z0.20 F1500.0 E15 		;extruda a primeira linha de purga
G1 X10.4 Y200.0 Z0.20 F5000.0 			;move o hotend um um pouco para a direita
G1 X10.4 Y20 Z0.28 F1500.0 E30 			;extruda a segunda linha de purga
;**** FIM ****
;**** PREPARAÇÃO PARA IMPRESSÃO ****
G92 E0 									;reinicia o marcador de posição da extrusora
G1 Z2.0 F3000 							;sobe 2mm no eixo Z, com velocidade de 3000mm/min ou 50mm/s
;**** FIM ****
G92 E0
G92 E0
G1 F2700 E-5
;LAYER_COUNT:378
;LAYER:0
M107
G0 F6000 X88.45 Y104.244 Z0.2
;TYPE:SKIRT
G1 F2700 E0
G1 F1200 X89.191 Y103.669 E0.0312
G1 X89.979 Y103.16 E0.0624
G1 X90.806 Y102.719 E0.09357
G1 X91.95 Y102.248 E0.13472
G1 X92.117 Y102.19 E0.1406
G1 X93.015 Y101.92 E0.17179
G1 X93.933 Y101.728 E0.20298
G1 X94.864 Y101.615 E0.23417
G1 X95.548 Y101.582 E0.25695
G1 X96.291 Y101.57 E0.28166
G1 X139.633 Y101.571 E1.72322
G1 X140.332 Y101.581 E1.74648
G1 X141.269 Y101.635 E1.77769
G1 X142.197 Y101.767 E1.80887
G1 X143.111 Y101.979 E1.84008
G1 X144.003 Y102.268 E1.87126
G1 X144.868 Y102.631 E1.90246
G1 X145.698 Y103.067 E1.93365
G1 X146.488 Y103.572 E1.96483
G1 X147.233 Y104.143 E1.99605
G1 X147.926 Y104.775 E2.02724
G1 X148.563 Y105.463 E2.05843
G1 X148.925 Y105.914 E2.07766
G1 X149.005 Y106.019 E2.08206
G1 X149.541 Y106.788 E2.11323
G1 X150.009 Y107.601 E2.14443
G1 X150.407 Y108.45 E2.17562
G1 X150.731 Y109.33 E2.20681
G1 X150.979 Y110.235 E2.23802
G1 X151.148 Y111.157 E2.2692
G1 X151.252 Y112.449 E2.31231
G1 X151.275 Y113.523 E2.34804
G1 X151.278 Y113.76 E2.35592
G1 X151.276 Y121.721 E2.6207
G1 X151.266 Y122.438 E2.64455
G1 X151.213 Y123.375 E2.67577
G1 X151.08 Y124.303 E2.70695
G1 X150.869 Y125.217 E2.73815
G1 X150.581 Y126.109 E2.76932
G1 X150.217 Y126.974 E2.80054
G1 X149.782 Y127.805 E2.83174
G1 X149.279 Y128.593 E2.86283
G1 X149.188 Y128.723 E2.86811
G1 X148.617 Y129.468 E2.89933
G1 X147.986 Y130.161 E2.9305
G1 X147.298 Y130.798 E2.96168
G1 X146.558 Y131.375 E2.99289
G1 X145.771 Y131.886 E3.0241
G1 X144.944 Y132.328 E3.05529
G1 X144.083 Y132.698 E3.08646
G1 X143.192 Y132.993 E3.11768
G1 X142.28 Y133.212 E3.14887
G1 X141.353 Y133.352 E3.18005
G1 X140.367 Y133.413 E3.21291
G1 X139.314 Y133.43 E3.24794
G1 X96.253 Y133.43 E4.68015
G1 X95.556 Y133.42 E4.70334
G1 X94.62 Y133.366 E4.73452
G1 X93.691 Y133.233 E4.76574
G1 X92.5 Y132.941 E4.80652
G1 X92.356 Y132.897 E4.81153
G1 X91.471 Y132.585 E4.84274
G1 X90.617 Y132.199 E4.87391
G1 X89.798 Y131.741 E4.90512
G1 X89.021 Y131.215 E4.93633
G1 X88.292 Y130.625 E4.96752
G1 X87.616 Y129.975 E4.99871
G1 X86.998 Y129.27 E5.0299
G1 X86.442 Y128.515 E5.06108
G1 X85.952 Y127.715 E5.09228
G1 X85.532 Y126.876 E5.12349
G1 X85.185 Y126.005 E5.15467
G1 X84.914 Y125.107 E5.18587
G1 X84.72 Y124.189 E5.21708
G1 X84.605 Y123.259 E5.24825
G1 X84.572 Y122.6 E5.27019
G1 X84.551 Y121.566 E5.30459
G1 X84.549 Y121.343 E5.31201
G1 X84.55 Y113.125 E5.58534
G1 X84.56 Y112.471 E5.6071
G1 X84.615 Y111.535 E5.63828
G1 X84.748 Y110.606 E5.66949
G1 X84.961 Y109.693 E5.70068
G1 X85.25 Y108.801 E5.73186
G1 X85.615 Y107.937 E5.76306
G1 X86.052 Y107.107 E5.79426
G1 X86.557 Y106.317 E5.82544
G1 X87.129 Y105.573 E5.85666
G1 X87.761 Y104.881 E5.88783
G1 X88.45 Y104.244 E5.91904
G0 F6000 X88.839 Y104.442
G1 F1200 X89.575 Y103.889 E5.94965
G1 X90.357 Y103.403 E5.98028
G1 X91.178 Y102.987 E6.01089
G1 X92.081 Y102.626 E6.04323
G1 X92.248 Y102.568 E6.04911
G1 X93.13 Y102.304 E6.07974
G1 X94.032 Y102.117 E6.11037
G1 X94.946 Y102.01 E6.14098
G1 X95.555 Y101.982 E6.16126
G1 X96.298 Y101.97 E6.18597
G1 X139.628 Y101.971 E7.62714
G1 X140.327 Y101.981 E7.65039
G1 X141.246 Y102.034 E7.681
G1 X142.157 Y102.167 E7.71163
G1 X143.053 Y102.378 E7.74224
G1 X143.927 Y102.666 E7.77285
G1 X144.773 Y103.029 E7.80347
G1 X145.585 Y103.464 E7.83411
G1 X146.355 Y103.968 E7.86471
G1 X147.079 Y104.537 E7.89534
G1 X147.751 Y105.166 E7.92596
G1 X148.607 Y106.156 E7.96948
G1 X148.687 Y106.261 E7.97388
G1 X149.212 Y107.017 E8.00449
G1 X149.67 Y107.815 E8.03509
G1 X150.057 Y108.651 E8.06573
G1 X150.37 Y109.517 E8.09636
G1 X150.607 Y110.406 E8.12696
G1 X150.766 Y111.313 E8.15759
G1 X150.853 Y112.458 E8.19578
G1 X150.876 Y113.532 E8.23151
G1 X150.878 Y113.76 E8.23909
G1 X150.876 Y121.716 E8.50371
G1 X150.866 Y122.433 E8.52756
G1 X150.813 Y123.352 E8.55818
G1 X150.681 Y124.263 E8.58879
G1 X150.47 Y125.159 E8.61941
G1 X150.182 Y126.034 E8.65005
G1 X149.819 Y126.88 E8.68067
G1 X149.385 Y127.691 E8.71126
G1 X148.951 Y128.364 E8.73789
G1 X148.86 Y128.494 E8.74317
G1 X148.3 Y129.224 E8.77377
G1 X147.678 Y129.904 E8.80442
G1 X147 Y130.526 E8.83503
G1 X146.27 Y131.088 E8.86567
G1 X145.495 Y131.584 E8.89627
G1 X144.679 Y132.011 E8.9269
G1 X143.83 Y132.365 E8.9575
G1 X142.952 Y132.645 E8.98815
G1 X142.054 Y132.847 E9.01876
G1 X141.142 Y132.971 E9.04938
G1 X140.36 Y133.013 E9.07542
G1 X139.314 Y133.03 E9.11022
G1 X96.259 Y133.03 E10.54223
G1 X95.562 Y133.02 E10.56542
G1 X94.643 Y132.967 E10.59603
G1 X93.732 Y132.834 E10.62666
G1 X92.616 Y132.558 E10.66489
G1 X92.472 Y132.514 E10.6699
G1 X91.605 Y132.207 E10.70049
G1 X90.766 Y131.826 E10.73114
G1 X89.965 Y131.374 E10.76173
G1 X89.205 Y130.853 E10.79238
G1 X88.494 Y130.269 E10.82298
G1 X87.836 Y129.625 E10.8536
G1 X87.236 Y128.927 E10.88422
G1 X86.699 Y128.179 E10.91484
G1 X86.229 Y127.387 E10.94547
G1 X85.829 Y126.558 E10.97609
G1 X85.503 Y125.697 E11.00671
G1 X85.253 Y124.811 E11.03733
G1 X85.081 Y123.906 E11.06797
G1 X84.972 Y122.592 E11.11182
G1 X84.951 Y121.558 E11.14622
G1 X84.949 Y121.343 E11.15337
G1 X84.95 Y113.131 E11.4265
G1 X84.96 Y112.477 E11.44826
G1 X85.014 Y111.558 E11.47888
G1 X85.148 Y110.647 E11.5095
G1 X85.36 Y109.751 E11.54013
G1 X85.649 Y108.877 E11.57074
G1 X86.013 Y108.031 E11.60137
G1 X86.449 Y107.22 E11.632
G1 X86.953 Y106.45 E11.66261
G1 X87.523 Y105.727 E11.69323
G1 X88.153 Y105.056 E11.72384
G1 X88.839 Y104.442 E11.75446
G0 F6000 X89.226 Y104.643
G1 F1200 X89.958 Y104.114 E11.7845
G1 X90.734 Y103.652 E11.81454
G1 X91.548 Y103.261 E11.84457
G1 X92.213 Y103.004 E11.86829
G1 X92.38 Y102.946 E11.87417
G1 X93.245 Y102.687 E11.9042
G1 X94.13 Y102.507 E11.93424
G1 X95.027 Y102.405 E11.96426
G1 X95.561 Y102.382 E11.98204
G1 X96.469 Y102.369 E12.01224
G1 X139.622 Y102.371 E13.44752
G1 X140.321 Y102.381 E13.47077
G1 X141.222 Y102.434 E13.50079
G1 X142.116 Y102.566 E13.53085
G1 X142.994 Y102.777 E13.56088
G1 X143.85 Y103.065 E13.59092
G1 X144.677 Y103.427 E13.62094
G1 X145.469 Y103.861 E13.65098
G1 X146.22 Y104.364 E13.68105
G1 X146.923 Y104.931 E13.71109
G1 X147.573 Y105.558 E13.74112
G1 X148.288 Y106.398 E13.77781
G1 X148.368 Y106.503 E13.7822
G1 X148.883 Y107.245 E13.81224
G1 X149.331 Y108.03 E13.84231
G1 X149.707 Y108.851 E13.87234
G1 X150.009 Y109.702 E13.90237
G1 X150.235 Y110.576 E13.9324
G1 X150.382 Y111.467 E13.96243
G1 X150.453 Y112.467 E13.99578
G1 X150.476 Y113.541 E14.03151
G1 X150.478 Y113.76 E14.03879
G1 X150.476 Y121.71 E14.30321
G1 X150.466 Y122.427 E14.32706
G1 X150.413 Y123.329 E14.35711
G1 X150.281 Y124.222 E14.38714
G1 X150.071 Y125.1 E14.41716
G1 X149.783 Y125.957 E14.44723
G1 X149.421 Y126.784 E14.47726
G1 X148.987 Y127.576 E14.5073
G1 X148.623 Y128.134 E14.52946
G1 X148.532 Y128.264 E14.53473
G1 X147.982 Y128.981 E14.56479
G1 X147.371 Y129.645 E14.5948
G1 X146.703 Y130.253 E14.62484
G1 X145.984 Y130.8 E14.65489
G1 X145.22 Y131.281 E14.68492
G1 X144.416 Y131.692 E14.71495
G1 X143.578 Y132.031 E14.74502
G1 X142.715 Y132.294 E14.77502
G1 X141.831 Y132.48 E14.80507
G1 X140.934 Y132.587 E14.83512
G1 X140.353 Y132.613 E14.85446
G1 X139.314 Y132.63 E14.88902
G1 X96.265 Y132.63 E16.32084
G1 X95.568 Y132.62 E16.34402
G1 X94.666 Y132.567 E16.37407
G1 X93.773 Y132.435 E16.4041
G1 X92.733 Y132.176 E16.43975
G1 X92.589 Y132.132 E16.44475
G1 X91.738 Y131.83 E16.47479
G1 X90.917 Y131.454 E16.50482
G1 X90.132 Y131.007 E16.53487
G1 X89.39 Y130.492 E16.56491
G1 X88.697 Y129.914 E16.59492
G1 X88.057 Y129.276 E16.62498
G1 X87.476 Y128.585 E16.65501
G1 X86.959 Y127.844 E16.68506
G1 X86.509 Y127.061 E16.71509
G1 X86.13 Y126.241 E16.74514
G1 X85.826 Y125.391 E16.77516
G1 X85.597 Y124.518 E16.80518
G1 X85.447 Y123.627 E16.83523
G1 X85.372 Y122.584 E16.87001
G1 X85.351 Y121.55 E16.90441
G1 X85.349 Y121.343 E16.9113
G1 X85.35 Y113.137 E17.18423
G1 X85.36 Y112.483 E17.20599
G1 X85.414 Y111.582 E17.23601
G1 X85.547 Y110.688 E17.26607
G1 X85.759 Y109.81 E17.29611
G1 X86.048 Y108.955 E17.32613
G1 X86.411 Y108.128 E17.35617
G1 X86.846 Y107.336 E17.38622
G1 X87.349 Y106.586 E17.41626
G1 X87.916 Y105.884 E17.44627
G1 X88.544 Y105.234 E17.47633
G1 X89.226 Y104.643 E17.50635
G1 F2700 E12.50635
;MESH:PLATempTower
G0 F6000 X95.963 Y111.904
G0 X95.963 Y112.983
G0 X96.149 Y121.831
;TYPE:WALL-INNER
G1 F2700 E17.50635
G1 F1200 X96.149 Y113.169 E17.79445
G1 X139.678 Y113.17 E19.24223
G1 X139.677 Y121.83 E19.53026
G1 X96.149 Y121.831 E20.97801
G0 F6000 X95.749 Y122.231
;TYPE:WALL-OUTER
G1 F1200 X95.749 Y112.769 E21.29271
G1 X140.078 Y112.77 E22.7671
G1 X140.077 Y122.23 E23.08174
G1 X95.749 Y122.231 E24.5561
G0 F6000 X96.019 Y121.961
G0 X96.259 Y121.441
G0 X96.539 Y121.441
;TYPE:SKIN
G1 F1200 X96.539 Y113.559 E24.81825
G1 X139.288 Y113.56 E26.24009
G1 X139.287 Y121.44 E26.50218
G1 X96.539 Y121.441 E27.92399
G0 F6000 X96.955 Y121.28
G1 F1200 X96.698 Y121.023 E27.93607
G0 F6000 X96.698 Y120.457
G1 F1200 X97.521 Y121.28 E27.97479
G0 F6000 X98.087 Y121.28
G1 F1200 X96.698 Y119.892 E28.0401
G0 F6000 X96.698 Y119.326
G1 F1200 X98.652 Y121.28 E28.13201
G0 F6000 X99.218 Y121.28
G1 F1200 X96.698 Y118.76 E28.25054
G0 F6000 X96.698 Y118.195
G1 F1200 X99.784 Y121.28 E28.39567
G0 F6000 X100.349 Y121.28
G1 F1200 X96.698 Y117.629 E28.5674
G0 F6000 X96.698 Y117.063
G1 F1200 X100.915 Y121.28 E28.76576
G0 F6000 X101.481 Y121.28
G1 F1200 X96.698 Y116.497 E28.99074
G0 F6000 X96.698 Y115.932
G1 F1200 X102.046 Y121.28 E29.24229
G0 F6000 X102.612 Y121.28
G1 F1200 X96.698 Y115.366 E29.52047
G0 F6000 X96.698 Y114.8
G1 F1200 X103.178 Y121.28 E29.82527
G0 F6000 X103.743 Y121.28
G1 F1200 X96.698 Y114.235 E30.15664
G0 F6000 X96.747 Y113.718
G1 F1200 X104.309 Y121.28 E30.51233
G0 F6000 X104.875 Y121.28
G1 F1200 X97.313 Y113.718 E30.86803
G0 F6000 X97.879 Y113.718
G1 F1200 X105.44 Y121.28 E31.2237
G0 F6000 X106.006 Y121.28
G1 F1200 X98.444 Y113.718 E31.57939
G0 F6000 X99.01 Y113.718
G1 F1200 X106.572 Y121.28 E31.93508
G0 F6000 X107.137 Y121.28
G1 F1200 X99.576 Y113.718 E32.29075
G0 F6000 X100.141 Y113.718
G1 F1200 X107.703 Y121.28 E32.64645
G0 F6000 X108.269 Y121.28
G1 F1200 X100.707 Y113.718 E33.00214
G0 F6000 X101.273 Y113.718
G1 F1200 X108.835 Y121.28 E33.35783
G0 F6000 X109.4 Y121.28
G1 F1200 X101.838 Y113.718 E33.71353
G0 F6000 X102.404 Y113.718
G1 F1200 X109.966 Y121.28 E34.06922
G0 F6000 X110.532 Y121.28
G1 F1200 X102.97 Y113.718 E34.42491
G0 F6000 X103.535 Y113.718
G1 F1200 X111.097 Y121.28 E34.78061
G0 F6000 X111.663 Y121.28
G1 F1200 X104.101 Y113.718 E35.1363
G0 F6000 X104.667 Y113.718
G1 F1200 X112.229 Y121.28 E35.49199
G0 F6000 X112.794 Y121.28
G1 F1200 X105.233 Y113.718 E35.84766
G0 F6000 X105.798 Y113.718
G1 F1200 X113.36 Y121.28 E36.20336
G0 F6000 X113.926 Y121.28
G1 F1200 X106.364 Y113.718 E36.55905
G0 F6000 X106.93 Y113.718
G1 F1200 X114.491 Y121.28 E36.91472
G0 F6000 X115.057 Y121.28
G1 F1200 X107.495 Y113.718 E37.27041
G0 F6000 X108.061 Y113.718
G1 F1200 X115.623 Y121.28 E37.62611
G0 F6000 X116.188 Y121.28
G1 F1200 X108.627 Y113.718 E37.98178
G0 F6000 X109.192 Y113.718
G1 F1200 X116.754 Y121.28 E38.33747
G0 F6000 X117.32 Y121.28
G1 F1200 X109.758 Y113.718 E38.69316
G0 F6000 X110.324 Y113.718
G1 F1200 X117.886 Y121.28 E39.04886
G0 F6000 X118.451 Y121.28
G1 F1200 X110.89 Y113.719 E39.4045
G0 F6000 X111.456 Y113.719
G1 F1200 X119.017 Y121.28 E39.76015
G0 F6000 X119.583 Y121.28
G1 F1200 X112.021 Y113.719 E40.11582
G0 F6000 X112.587 Y113.719
G1 F1200 X120.148 Y121.28 E40.47146
G0 F6000 X120.714 Y121.28
G1 F1200 X113.153 Y113.719 E40.82711
G0 F6000 X113.719 Y113.719
G1 F1200 X121.28 Y121.28 E41.18276
G0 F6000 X121.845 Y121.28
G1 F1200 X114.284 Y113.719 E41.5384
G0 F6000 X114.85 Y113.719
G1 F1200 X122.411 Y121.28 E41.89405
G0 F6000 X122.977 Y121.28
G1 F1200 X115.416 Y113.719 E42.2497
G0 F6000 X115.981 Y113.719
G1 F1200 X123.542 Y121.28 E42.60534
G0 F6000 X124.108 Y121.28
G1 F1200 X116.547 Y113.719 E42.96099
G0 F6000 X117.113 Y113.719
G1 F1200 X124.674 Y121.28 E43.31663
G0 F6000 X125.239 Y121.28
G1 F1200 X117.678 Y113.719 E43.67228
G0 F6000 X118.244 Y113.719
G1 F1200 X125.805 Y121.28 E44.02793
G0 F6000 X126.371 Y121.28
G1 F1200 X118.81 Y113.719 E44.38357
G0 F6000 X119.375 Y113.719
G1 F1200 X126.936 Y121.28 E44.73922
G0 F6000 X127.502 Y121.28
G1 F1200 X119.941 Y113.719 E45.09487
G0 F6000 X120.507 Y113.719
G1 F1200 X128.068 Y121.28 E45.45051
G0 F6000 X128.634 Y121.28
G1 F1200 X121.072 Y113.719 E45.80618
G0 F6000 X121.638 Y113.719
G1 F1200 X129.199 Y121.28 E46.16183
G0 F6000 X129.765 Y121.28
G1 F1200 X122.204 Y113.719 E46.51747
G0 F6000 X122.77 Y113.719
G1 F1200 X130.331 Y121.28 E46.87312
G0 F6000 X130.896 Y121.28
G1 F1200 X123.335 Y113.719 E47.22877
G0 F6000 X123.901 Y113.719
G1 F1200 X131.462 Y121.28 E47.58441
G0 F6000 X132.028 Y121.28
G1 F1200 X124.467 Y113.719 E47.94006
G0 F6000 X125.033 Y113.719
G1 F1200 X132.593 Y121.28 E48.29568
G0 F6000 X133.159 Y121.28
G1 F1200 X125.599 Y113.719 E48.6513
G0 F6000 X126.164 Y113.719
G1 F1200 X133.725 Y121.28 E49.00695
G0 F6000 X134.29 Y121.28
G1 F1200 X126.73 Y113.719 E49.36257
G0 F6000 X127.296 Y113.719
G1 F1200 X134.856 Y121.28 E49.7182
G0 F6000 X135.422 Y121.28
G1 F1200 X127.861 Y113.719 E50.07384
G0 F6000 X128.427 Y113.719
G1 F1200 X135.987 Y121.28 E50.42947
G0 F6000 X136.553 Y121.28
G1 F1200 X128.993 Y113.719 E50.78509
G0 F6000 X129.558 Y113.719
G1 F1200 X137.119 Y121.28 E51.14073
G0 F6000 X137.685 Y121.28
G1 F1200 X130.124 Y113.719 E51.49638
G0 F6000 X130.69 Y113.719
G1 F1200 X138.25 Y121.28 E51.852
G0 F6000 X138.816 Y121.28
G1 F1200 X131.255 Y113.719 E52.20765
G0 F6000 X131.821 Y113.719
G1 F1200 X139.126 Y121.024 E52.55125
G0 F6000 X139.126 Y120.459
G1 F1200 X132.387 Y113.719 E52.86826
G0 F6000 X132.953 Y113.719
G1 F1200 X139.126 Y119.893 E53.15864
